markup/images/icon23.svg

<svg xmlns="http://www.w3.org/2000/svg" width="73" height="74"><path fill-rule="evenodd" fill="#0D1B27" d="M70.567 72.893V57.2a3.65 3.65 0 0 0-1.557-2.986l-7.352-5.055 2.28 6.08c.69 1.825.728 3.83.109 5.68l2.513 2.51-1.72 1.718-8.495-8.483a1.747 1.747 0 0 0-1.397-.521 1.773 1.773 0 0 0-1.308.712 1.8 1.8 0 0 0 .167 2.343l4.237 4.231c.228.227.356.536.356.859a6.116 6.116 0 0 0 6.083 6.074v2.43a8.49 8.49 0 0 1-8.011-5.638l-3.669 1.378a4.104 4.104 0 0 0 2.327 1.986l-.769 2.308a6.533 6.533 0 0 1-3.854-3.436l-12.054 4.535-.002.001a1.218 1.218 0 0 1-1.567-.711l-2.175-5.803c-.36.209-.736.387-1.126.532-3.786 1.409-7.999-.513-9.41-4.294a7.302 7.302 0 0 1 5.481-9.722l-3.035-8.094a1.215 1.215 0 0 1 .711-1.563l8.453-3.179a1.215 1.215 0 0 1 1.645 1.2 4.851 4.851 0 0 0 .301 1.975 4.869 4.869 0 0 0 6.263 2.849 4.887 4.887 0 0 0 2.846-6.284 9.328 9.328 0 0 0-.398-.913c-.13-.267-.253-.524-.384-.865a1.214 1.214 0 0 1 .644-1.545l7.909-3.493c.022-.009.044-.019.067-.027.63-.234 1.33.086 1.564.715l3.929 10.481 10.229 7.033A6.083 6.083 0 0 1 73 57.2v15.693h-2.433zm-16.159-36.13l-5.597 2.475c.098.211.199.448.311.747a7.318 7.318 0 0 1-4.267 9.408 7.404 7.404 0 0 1-1.188.334c-3.959.759-7.785-1.831-8.546-5.784l-5.793 2.178 3.178 8.473a1.214 1.214 0 0 1-1.204 1.639 4.328 4.328 0 0 0-.763.025 4.738 4.738 0 0 0-1.203.272 4.855 4.855 0 0 0-1.784 7.871 4.872 4.872 0 0 0 6.88.195 1.213 1.213 0 0 1 1.115-.317c.402.089.731.375.875.759l2.319 6.188 17.194-6.467-3.848-3.843-.076-.075a4.217 4.217 0 0 1 .076-5.97 4.232 4.232 0 0 1 5.978.075l3.95 3.943a6.088 6.088 0 0 0-.356-2.798l-7.251-19.328zm5.209-5.176h-7.404c.069.401.104.807.104 1.214h-2.434a4.8 4.8 0 0 0-.411-1.943 1.216 1.216 0 0 1 1.115-1.701H58.4V8.504a6.086 6.086 0 0 0-6.083-6.075H31.633v6.178a7.09 7.09 0 0 1 1.217-.103c4.032 0 7.3 3.263 7.3 7.289s-3.268 7.289-7.3 7.289a7.09 7.09 0 0 1-1.217-.103v6.178h7.814a1.216 1.216 0 0 1 1.114 1.701 4.8 4.8 0 0 0-.411 1.943 4.877 4.877 0 0 0 3.893 4.764l-.486 2.38a7.312 7.312 0 0 1-5.84-7.144 7.056 7.056 0 0 1 .103-1.214h-6.187v8.916a1.218 1.218 0 0 1-1.703 1.113 4.867 4.867 0 0 0-6.415 2.51 4.858 4.858 0 0 0 2.522 6.395l-.974 2.225a7.289 7.289 0 0 1-4.382-6.684c.001-4.026 3.271-7.288 7.302-7.287a7.19 7.19 0 0 1 1.217.101v-7.289h-7.814a1.26 1.26 0 0 1-1.114-1.803 4.855 4.855 0 0 0 0-3.91 4.868 4.868 0 0 0-6.413-2.494 4.857 4.857 0 0 0-2.498 6.404 1.308 1.308 0 0 1-1.114 1.803H2.433v20.552a6.086 6.086 0 0 0 6.084 6.074H21.9v2.43H8.517C3.816 60.637.006 56.833 0 52.139V8.504C.006 3.81 3.816.006 8.517 0h43.8c4.701.006 8.51 3.81 8.516 8.504v21.868c0 .671-.545 1.215-1.216 1.215zm-29.2-20.141a1.216 1.216 0 0 1-1.217-1.215V2.429H8.517a6.087 6.087 0 0 0-6.084 6.075v20.552h6.179a7.048 7.048 0 0 1-.095-1.114v-.063-.038c0-4.026 3.268-7.289 7.3-7.289 4.031 0 7.3 3.263 7.3 7.289v.101a7.168 7.168 0 0 1-.095 1.114H29.2v-7.701a1.217 1.217 0 0 1 1.703-1.113 4.815 4.815 0 0 0 1.947.411 4.864 4.864 0 0 0 4.867-4.86 4.863 4.863 0 0 0-6.814-4.449 1.21 1.21 0 0 1-.486.102z"/></svg>

<svg 
 xmlns="http://www.w3.org/2000/svg"
 xmlns:xlink="http://www.w3.org/1999/xlink"
 width="73px" height="74px">
<path fill-rule="evenodd"  fill="rgb(13, 27, 39)"
 d="M70.567,72.893 L70.567,57.200 C70.566,56.011 69.985,54.897 69.010,54.214 L61.658,49.159 L63.938,55.239 C64.628,57.064 64.666,59.069 64.047,60.919 L66.560,63.429 L64.840,65.147 L56.345,56.664 C55.981,56.291 55.469,56.099 54.948,56.143 C54.429,56.177 53.950,56.437 53.640,56.855 C53.108,57.570 53.179,58.566 53.807,59.198 L58.044,63.429 C58.272,63.656 58.400,63.965 58.400,64.288 C58.420,67.634 61.132,70.341 64.483,70.362 L64.483,72.792 C60.886,72.796 57.676,70.538 56.472,67.154 L52.803,68.532 C53.293,69.469 54.127,70.180 55.130,70.518 L54.361,72.826 C52.658,72.258 51.265,71.015 50.507,69.390 L38.453,73.925 C38.452,73.925 38.451,73.926 38.451,73.926 C37.821,74.161 37.120,73.843 36.884,73.215 L34.709,67.412 C34.349,67.621 33.973,67.799 33.583,67.944 C29.797,69.353 25.584,67.431 24.173,63.650 C22.762,59.869 24.688,55.663 28.474,54.254 C28.856,54.110 29.252,54.001 29.654,53.928 L26.619,45.834 C26.384,45.206 26.702,44.507 27.330,44.271 L35.783,41.092 C35.941,41.032 36.109,41.006 36.277,41.015 C36.948,41.050 37.464,41.622 37.428,42.292 C37.390,42.964 37.493,43.637 37.729,44.267 C38.671,46.781 41.475,48.056 43.992,47.116 C46.511,46.160 47.782,43.352 46.838,40.832 C46.691,40.437 46.570,40.187 46.440,39.919 C46.310,39.652 46.187,39.395 46.056,39.054 C45.824,38.450 46.108,37.771 46.700,37.509 L54.609,34.016 C54.631,34.007 54.653,33.997 54.676,33.989 C55.306,33.755 56.006,34.075 56.240,34.704 L60.169,45.185 L70.398,52.218 C72.027,53.355 72.998,55.215 73.000,57.200 L73.000,72.893 L70.567,72.893 ZM54.408,36.763 L48.811,39.238 C48.909,39.449 49.010,39.686 49.122,39.985 C50.534,43.759 48.628,47.963 44.855,49.393 C44.469,49.537 44.072,49.649 43.667,49.727 C39.708,50.486 35.882,47.896 35.121,43.943 L29.328,46.121 L32.506,54.594 C32.564,54.750 32.590,54.916 32.581,55.083 C32.546,55.753 31.973,56.268 31.302,56.233 C31.048,56.219 30.793,56.227 30.539,56.258 C30.128,56.296 29.724,56.387 29.336,56.530 C28.746,56.758 28.207,57.098 27.747,57.531 C25.793,59.374 25.706,62.450 27.552,64.401 C29.398,66.352 32.478,66.439 34.432,64.596 C34.659,64.374 34.965,64.249 35.283,64.250 C35.372,64.250 35.461,64.260 35.547,64.279 C35.949,64.368 36.278,64.654 36.422,65.038 L38.741,71.226 L55.935,64.759 L52.087,60.916 C52.061,60.891 52.036,60.866 52.011,60.841 C50.381,59.172 50.415,56.499 52.087,54.871 C53.758,53.243 56.435,53.277 58.065,54.946 L62.015,58.889 C62.117,57.941 61.995,56.983 61.659,56.091 L54.408,36.763 ZM59.617,31.587 L52.213,31.587 C52.282,31.988 52.317,32.394 52.317,32.801 L49.883,32.801 C49.883,32.132 49.743,31.470 49.472,30.858 C49.405,30.705 49.371,30.539 49.370,30.372 C49.370,29.701 49.915,29.157 50.587,29.157 L58.400,29.157 L58.400,8.504 C58.396,5.151 55.675,2.433 52.317,2.429 L31.633,2.429 L31.633,8.607 C32.035,8.538 32.442,8.503 32.850,8.504 C36.882,8.504 40.150,11.767 40.150,15.793 C40.150,19.819 36.882,23.082 32.850,23.082 C32.442,23.083 32.035,23.048 31.633,22.979 L31.633,29.157 L39.447,29.157 C39.614,29.157 39.779,29.191 39.933,29.258 C40.549,29.527 40.830,30.243 40.561,30.858 C40.290,31.470 40.150,32.132 40.150,32.801 C40.155,35.109 41.780,37.098 44.043,37.565 L43.557,39.945 C40.162,39.245 37.724,36.263 37.717,32.801 C37.716,32.394 37.751,31.988 37.820,31.587 L31.633,31.587 L31.633,40.503 C31.633,40.670 31.599,40.835 31.532,40.988 C31.263,41.603 30.546,41.884 29.930,41.616 C29.317,41.345 28.654,41.205 27.983,41.205 C26.044,41.203 24.289,42.350 23.515,44.126 C22.443,46.587 23.572,49.450 26.037,50.521 L25.063,52.746 C22.401,51.587 20.680,48.962 20.681,46.062 C20.682,42.036 23.952,38.774 27.983,38.775 C28.391,38.774 28.798,38.808 29.200,38.876 L29.200,31.587 L21.386,31.587 C21.206,31.583 21.029,31.541 20.866,31.464 C20.238,31.164 19.972,30.411 20.272,29.784 C20.820,28.538 20.820,27.119 20.272,25.874 C19.191,23.416 16.319,22.300 13.859,23.380 C11.398,24.460 10.280,27.326 11.361,29.784 C11.414,29.912 11.447,30.049 11.457,30.188 C11.510,30.908 10.968,31.534 10.247,31.587 L2.433,31.587 L2.433,52.139 C2.437,55.492 5.159,58.209 8.517,58.213 L21.900,58.213 L21.900,60.643 L8.517,60.643 C3.816,60.637 0.006,56.833 -0.000,52.139 L-0.000,8.504 C0.006,3.810 3.816,0.006 8.517,-0.000 L52.317,-0.000 C57.018,0.006 60.827,3.810 60.833,8.504 L60.833,30.372 C60.833,31.043 60.288,31.587 59.617,31.587 ZM30.417,11.446 C29.745,11.446 29.200,10.902 29.200,10.231 L29.200,2.429 L8.517,2.429 C5.159,2.433 2.437,5.151 2.433,8.504 L2.433,29.056 L8.612,29.056 C8.551,28.688 8.519,28.315 8.517,27.942 C8.517,27.920 8.517,27.891 8.517,27.879 C8.517,27.867 8.517,27.853 8.517,27.841 C8.517,23.815 11.785,20.552 15.817,20.552 C19.848,20.552 23.117,23.815 23.117,27.841 C23.117,27.853 23.117,27.857 23.117,27.879 C23.117,27.901 23.117,27.920 23.117,27.942 C23.114,28.315 23.083,28.688 23.022,29.056 L29.200,29.056 L29.200,21.355 C29.200,21.188 29.235,21.023 29.302,20.869 C29.570,20.255 30.287,19.974 30.903,20.242 C31.516,20.513 32.179,20.653 32.850,20.653 C35.538,20.653 37.717,18.477 37.717,15.793 C37.717,13.109 35.538,10.934 32.850,10.934 C32.179,10.933 31.516,11.073 30.903,11.344 C30.750,11.411 30.585,11.446 30.417,11.446 Z"/>
</svg>
